svg/fluentui-system-icons/ic_fluent_equal_circle_24_filled.svg

<svg width="24" height="24" viewBox="0 0 24 24" fill="none" xmlns="http://www.w3.org/2000/svg">
<path d="M22 12C22 6.47715 17.5228 2 12 2C6.47715 2 2 6.47715 2 12C2 17.5228 6.47715 22 12 22C17.5228 22 22 17.5228 22 12ZM16.2522 10.5H7.75277C7.33856 10.5 7.00277 10.1642 7.00277 9.75C7.00277 9.33579 7.33856 9 7.75277 9L16.2522 9C16.6664 9 17.0022 9.33579 17.0022 9.75C17.0022 10.1642 16.6664 10.5 16.2522 10.5ZM16.2522 15H7.75277C7.33856 15 7.00277 14.6642 7.00277 14.25C7.00277 13.8358 7.33856 13.5 7.75277 13.5H16.2522C16.6664 13.5 17.0022 13.8358 17.0022 14.25C17.0022 14.6642 16.6664 15 16.2522 15Z" fill="#212121"/>
</svg>

<svg xmlns="http://www.w3.org/2000/svg" width="24" height="24"><path d="M22 12c0-5.523-4.477-10-10-10S2 6.477 2 12s4.477 10 10 10 10-4.477 10-10Zm-5.748-1.5h-8.5a.75.75 0 0 1 0-1.5h8.5a.75.75 0 0 1 0 1.5Zm0 4.5h-8.5a.75.75 0 0 1 0-1.5h8.5a.75.75 0 0 1 0 1.5Z"/></svg>
